amiga/_inc/system.svg

<svg xmlns="http://www.w3.org/2000/svg"><g fill="#fff"><path d="m274.679 67.235 3.837 5.762c-.297-.448-.789-.735-1.281-.735-.521 0-1.039.321-1.328 1.117l-3.837-5.762c.29-.795.808-1.118 1.328-1.118.49 0 .979.289 1.283.736z"/><path d="m338.612 65.306 3.838 5.762c-.187-.28-.46-.425-.748-.425-.383 0-.787.257-1.047.785l-3.835-5.762c.26-.525.666-.783 1.049-.783.293-.001.566.144.75.423z"/><path d="m341.916 44.745 32.409.205c.618 0 5.066.721-.492 2.173-4.44 1.157-8.077.72-9.529 6.502l-17.49 70.211c-1.453 6.271 3.427 11.679 9.737 13.374 1.427.348 1.514 1.864-.172 1.956l-21.294-.786-25.874.874c-1.879 0-1.952-1.951.092-2.31 6.049-.616 11.394-5.601 12.556-9.691l17.009-60.971c.002-.921-.473-1.4-.994-1.4-.38 0-.787.257-1.049.781l-47.888 69.497c-1.327 2.138-3.414 3.556-5.261 3.556-1.995 0-3.709-1.654-3.89-5.844l-4.82-64.789c-.052-.898-.808-1.581-1.564-1.581-.519 0-1.038.323-1.327 1.118l-16.426 51.4c-1.345 3.905-1.441 7.724.16 10.487 1.591 2.838 5.685 6.309 10.481 7.286 1.864.447 1.77 2.31-.004 2.401l-17.206-.719-14.453.541c-1.697-.091-1.514-1.773.005-2.047 4.977-1.065 10.683-6.13 13.27-13.337l21.279-68.386c.893-2.584-.517-5.694-3.101-6.311l-6.583-1.337c-1.156-.089-1.321-1.774.002-1.774l37.768-.307 3.786 59.534 2.769-3.369 36.041-53.464c.413-.736 1.489-2.42 2.033-3.486z"/><path d="m390.789 44.5 43.507.36c2.046 0 3.005 3.623-1.088 3.984-4.372.384-8.944 3.495-10.019 7.22l-20.383 70.456c-.983 3.739 1.732 9.985 8.753 10.513 1.156.268 1.154 2.041.086 2.041l-25.692-.985-24.679.744c-1.339 0-.973-1.771.168-1.951 3.382-.616 13.215-4.432 15.092-10.474l22.725-70.338c1.423-5.063-3.28-7.556-8.614-8.802-1.141-.173-.902-2.666.153-2.756z"/><path d="m504.639 40.118c4.463 0 8.843.369 13.052 1.155 2.675.539 5.952 1.761 5.152 4.073l-6.422 16.371c-.508 1.668-1.353 2.677-2.208 2.677-1.19 0-2.4-1.948-2.775-6.789-.211-2.649.215-12.183-3.42-12.388-.924-.05-1.843-.072-2.765-.072-5.83 0-11.621.962-16.776 2.604-19.645 6.271-32.102 16.988-40.316 35.286-8.03 17.605-4.065 36.634 1.607 43.124 3.867 4.42 12.901 7.474 19.845 7.474 4.077 0 7.433-1.055 8.594-3.506 3.759-9.032 5.581-20.108 5.229-25.171.015-6.14-2.393-6.618-6.97-7.465-3.208-.34-4.235-2.421 1.756-2.421.319 0 .657.006 1.019.02 1.924-.012 3.796-.018 5.64-.018 4.22 0 8.265.023 12.285.042 3.777.02 7.529.038 11.387.038 3.53 0 7.15-.018 10.951-.065 1.065.525.974.975-.095 1.505-6.495.975-9.081 2.221-9.704 4.625-2.51 8.535-4.765 17.872-8.831 26.625-1.446 3.135-8.268 6.117-10.49 6.746-6.909 2.46-18.392 4.417-29.33 4.417-8.776 0-17.201-1.261-22.628-4.548-20.346-12.436-24.006-36.018-15.699-51.567 12.32-23.129 49.44-42.768 81.917-42.768z"/><path d="m30.978 64.577h25.972l48.849 72.92h-25.735z"/><path d="m172.072.001h25.737l-91.741 137.496h-24.544z"/><path d="m0 64.577h25.974l48.848 72.92h-25.735z"/><path d="m141.096 0h25.736l-91.741 137.497h-24.544z"/><path d="m167.778 105.534-12.66 17.951c-3.753 5.872 3.347 12.004 11.176 13.433.718.556.595 2.351-.451 2.351-.114 0-.238-.022-.375-.067-.157-.069-3.11-1.3-9.823-1.927-1.796-.17-5.027-.72-8.965-.72-1.356 0-2.795.066-4.291.231l-14.161 1.994c-1.34-.089-1.336-1.685.002-2.045 6.843-.885 15.043-5.961 19.853-12.798l57.603-80.352c.951-1.38 2.985-2.182 4.964-2.182 2.477 0 4.864 1.26 4.91 4.226l1.898 80.441c.616 6.747 5.136 9.599 10.831 11.192.796.538.448 1.606-.093 1.789-.37-.008-7.395-.115-15.789-1.364-1.965-.29-3.501-.457-5.378-.457-1.623 0-3.502.126-6.133.405-3.293.348-1.737.398-15.071.99-.507.024-1-.108-1.106-.966.118-.989 1.609-1.466 2.085-1.593 5.328-1.476 7.956-4.149 9.125-10.706 1.261-7.209.924-13.338.754-19.648m-8.166-4.868c2.932 0 5.692.016 7.748.061l-.762-33.486c-.144-.434-.34-.657-.564-.657-.183 0-.388.158-.593.477-7.13 10.126-16.951 22.539-23.991 32.588-.451.794-.002 1.065 1.065 1.065.171.016.748.02 1.629.02 1.515 0 3.922-.016 6.679-.028 2.761-.02 5.871-.04 8.795-.04"/><path d="m599.537 137.399c.796.524.432 1.592-.094 1.775-.369-.007-7.394-.116-15.789-1.348-1.993-.294-3.538-.466-5.438-.466-1.608 0-3.468.123-6.071.398-3.307.346-1.738.397-15.088.99-.498.022-.983-.107-1.09-.965.117-.988 1.61-1.454 2.072-1.595 5.337-1.465 7.966-4.148 9.138-10.704 1.259-7.195.911-13.326.744-19.646l-28.908-.166-12.662 17.952c-3.739 5.863 3.359 11.987 11.187 13.415.719.567.586 2.357-.459 2.357-.117 0-.243-.022-.383-.068-.158-.065-3.108-1.287-9.808-1.928-1.794-.169-5.029-.719-8.966-.719-1.357 0-2.794.064-4.289.231l-14.172 1.994c-1.328-.091-1.326-1.686.004-2.045 6.855-.885 15.041-5.949 19.864-12.798l57.605-80.335c.95-1.386 2.982-2.189 4.96-2.189 2.481 0 4.87 1.265 4.915 4.231l1.896 80.428c.619 6.763 5.154 9.611 10.851 11.21zm-39.817-36.42c2.942 0 5.715.016 7.776.061l-.748-33.502c-.149-.435-.346-.658-.567-.658-.186 0-.386.157-.586.479-7.142 10.139-16.953 22.55-24.005 32.585-.439.797-.002 1.066 1.065 1.066.208.02 1.027.024 2.259.024 1.497 0 3.61-.013 5.997-.024 2.751-.015 5.86-.031 8.807-.031"/></g></svg>

<?xml version="1.0" encoding="utf-8"?>
<svg xmlns="http://www.w3.org/2000/svg">
  <g>
    <path id="SVGID_1_" d="M 274.679 67.235 L 278.516 72.997 C 278.219 72.549 277.727 72.262 277.235 72.262 C 276.714 72.262 276.196 72.583 275.907 73.379 L 272.07 67.617 C 272.36 66.822 272.878 66.499 273.398 66.499 C 273.888 66.499 274.377 66.788 274.681 67.235 Z" style="fill: rgb(255, 255, 255);"/>
    <path id="SVGID_3_" d="M 338.612 65.306 L 342.45 71.068 C 342.263 70.788 341.99 70.643 341.702 70.643 C 341.319 70.643 340.915 70.9 340.655 71.428 L 336.82 65.666 C 337.08 65.141 337.486 64.883 337.869 64.883 C 338.162 64.882 338.435 65.027 338.619 65.306 Z" style="fill: rgb(255, 255, 255);"/>
    <path id="path33" d="M 341.916 44.745 L 374.325 44.95 C 374.943 44.95 379.391 45.671 373.833 47.123 C 369.393 48.28 365.756 47.843 364.304 53.625 L 346.814 123.836 C 345.361 130.107 350.241 135.515 356.551 137.21 C 357.978 137.558 358.065 139.074 356.379 139.166 L 335.085 138.38 L 309.211 139.254 C 307.332 139.254 307.259 137.303 309.303 136.944 C 315.352 136.328 320.697 131.343 321.859 127.253 L 338.868 66.282 C 338.87 65.361 338.395 64.882 337.874 64.882 C 337.494 64.882 337.087 65.139 336.825 65.663 L 288.937 135.16 C 287.61 137.298 285.523 138.716 283.676 138.716 C 281.681 138.716 279.967 137.062 279.786 132.872 L 274.966 68.083 C 274.914 67.185 274.158 66.502 273.402 66.502 C 272.883 66.502 272.364 66.825 272.075 67.62 L 255.649 119.02 C 254.304 122.925 254.208 126.744 255.809 129.507 C 257.4 132.345 261.494 135.816 266.29 136.793 C 268.154 137.24 268.06 139.103 266.286 139.194 L 249.08 138.475 L 234.627 139.016 C 232.93 138.925 233.113 137.243 234.632 136.969 C 239.609 135.904 245.315 130.839 247.902 123.632 L 269.181 55.246 C 270.074 52.662 268.664 49.552 266.08 48.935 L 259.497 47.598 C 258.341 47.509 258.176 45.824 259.499 45.824 L 297.267 45.517 L 301.053 105.051 L 303.822 101.682 L 339.863 48.218 C 340.276 47.482 341.352 45.798 341.896 44.732 Z" style="fill: rgb(255, 255, 255);"/>
    <path id="path43" d="M 390.789 44.5 L 434.296 44.86 C 436.342 44.86 437.301 48.483 433.208 48.844 C 428.836 49.228 424.264 52.339 423.189 56.064 L 402.806 126.52 C 401.823 130.259 404.538 136.505 411.559 137.033 C 412.715 137.301 412.713 139.074 411.645 139.074 L 385.953 138.089 L 361.274 138.833 C 359.935 138.833 360.301 137.062 361.442 136.882 C 364.824 136.266 374.657 132.45 376.534 126.408 L 399.259 56.07 C 400.682 51.007 395.979 48.514 390.645 47.268 C 389.504 47.095 389.743 44.602 390.798 44.512 Z" style="fill: rgb(255, 255, 255);"/>
    <path id="path53" d="M 504.639 40.118 C 509.102 40.118 513.482 40.487 517.691 41.273 C 520.366 41.812 523.643 43.034 522.843 45.346 L 516.421 61.717 C 515.913 63.385 515.068 64.394 514.213 64.394 C 513.023 64.394 511.813 62.446 511.438 57.605 C 511.227 54.956 511.653 45.422 508.018 45.217 C 507.094 45.167 506.175 45.145 505.253 45.145 C 499.423 45.145 493.632 46.107 488.477 47.749 C 468.832 54.02 456.375 64.737 448.161 83.035 C 440.131 100.64 444.096 119.669 449.768 126.159 C 453.635 130.579 462.669 133.633 469.613 133.633 C 473.69 133.633 477.046 132.578 478.207 130.127 C 481.966 121.095 483.788 110.019 483.436 104.956 C 483.451 98.816 481.043 98.338 476.466 97.491 C 473.258 97.151 472.231 95.07 478.222 95.07 C 478.541 95.07 478.879 95.076 479.241 95.09 C 481.165 95.078 483.037 95.072 484.881 95.072 C 489.101 95.072 493.146 95.095 497.166 95.114 C 500.943 95.134 504.695 95.152 508.553 95.152 C 512.083 95.152 515.703 95.134 519.504 95.087 C 520.569 95.612 520.478 96.062 519.409 96.592 C 512.914 97.567 510.328 98.813 509.705 101.217 C 507.195 109.752 504.94 119.089 500.874 127.842 C 499.428 130.977 492.606 133.959 490.384 134.588 C 483.475 137.048 471.992 139.005 461.054 139.005 C 452.278 139.005 443.853 137.744 438.426 134.457 C 418.08 122.021 414.42 98.439 422.727 82.89 C 435.047 59.761 472.167 40.122 504.644 40.122 Z" style="fill: rgb(255, 255, 255);"/>
    <polygon id="polygon79" points="30.978 64.577 56.95 64.577 105.799 137.497 80.064 137.497" style="fill: rgb(255, 255, 255);"/>
    <polygon id="polygon104" points="172.072 0.001 197.809 0.001 106.068 137.497 81.524 137.497" style="fill: rgb(255, 255, 255);"/>
    <polygon id="polygon123" points="0 64.577 25.974 64.577 74.822 137.497 49.087 137.497" style="fill: rgb(255, 255, 255);"/>
    <polygon id="polygon148" points="141.096 0 166.832 0 75.091 137.497 50.547 137.497" style="fill: rgb(255, 255, 255);"/>
    <path id="path152" d="M 167.778 105.534 L 155.118 123.485 C 151.365 129.357 158.465 135.489 166.294 136.918 C 167.012 137.474 166.889 139.269 165.843 139.269 C 165.729 139.269 165.605 139.247 165.468 139.202 C 165.311 139.133 162.358 137.902 155.645 137.275 C 153.849 137.105 150.618 136.555 146.68 136.555 C 145.324 136.555 143.885 136.621 142.389 136.786 L 128.228 138.78 C 126.888 138.691 126.892 137.095 128.23 136.735 C 135.073 135.85 143.273 130.774 148.083 123.937 L 205.686 43.585 C 206.637 42.205 208.671 41.403 210.65 41.403 C 213.127 41.403 215.514 42.663 215.56 45.629 L 217.458 126.07 C 218.074 132.817 222.594 135.669 228.289 137.262 C 229.085 137.8 228.737 138.868 228.196 139.051 C 227.826 139.043 220.801 138.936 212.407 137.687 C 210.442 137.397 208.906 137.23 207.029 137.23 C 205.406 137.23 203.527 137.356 200.896 137.635 C 197.603 137.983 199.159 138.033 185.825 138.625 C 185.318 138.649 184.825 138.517 184.719 137.659 C 184.837 136.67 186.328 136.193 186.804 136.066 C 192.132 134.59 194.76 131.917 195.929 125.36 C 197.19 118.151 196.853 112.022 196.683 105.712 M 188.517 100.844 C 191.449 100.844 194.209 100.86 196.265 100.905 L 195.503 67.419 C 195.359 66.985 195.163 66.762 194.939 66.762 C 194.756 66.762 194.551 66.92 194.346 67.239 C 187.216 77.365 177.395 89.778 170.355 99.827 C 169.904 100.621 170.353 100.892 171.42 100.892 C 171.591 100.908 172.168 100.912 173.049 100.912 C 174.564 100.912 176.971 100.896 179.728 100.884 C 182.489 100.864 185.599 100.844 188.523 100.844" style="fill: rgb(255, 255, 255);"/>
    <path id="path156" d="M 599.537 137.399 C 600.333 137.923 599.969 138.991 599.443 139.174 C 599.074 139.167 592.049 139.058 583.654 137.826 C 581.661 137.532 580.116 137.36 578.216 137.36 C 576.608 137.36 574.748 137.483 572.145 137.758 C 568.838 138.104 570.407 138.155 557.057 138.748 C 556.559 138.77 556.074 138.641 555.967 137.783 C 556.084 136.795 557.577 136.329 558.039 136.188 C 563.376 134.723 566.005 132.04 567.177 125.484 C 568.436 118.289 568.088 112.158 567.921 105.838 L 539.013 105.672 L 526.351 123.624 C 522.612 129.487 529.71 135.611 537.538 137.039 C 538.257 137.606 538.124 139.396 537.079 139.396 C 536.962 139.396 536.836 139.374 536.696 139.328 C 536.538 139.263 533.588 138.041 526.888 137.4 C 525.094 137.231 521.859 136.681 517.922 136.681 C 516.565 136.681 515.128 136.745 513.633 136.912 L 499.461 138.906 C 498.133 138.815 498.135 137.22 499.465 136.861 C 506.32 135.976 514.506 130.912 519.329 124.063 L 576.934 43.728 C 577.884 42.342 579.916 41.539 581.894 41.539 C 584.375 41.539 586.764 42.804 586.809 45.77 L 588.705 126.198 C 589.324 132.961 593.859 135.809 599.556 137.408 Z M 559.72 100.979 C 562.662 100.979 565.435 100.995 567.496 101.04 L 566.748 67.538 C 566.599 67.103 566.402 66.88 566.181 66.88 C 565.995 66.88 565.795 67.037 565.595 67.359 C 558.453 77.498 548.642 89.909 541.59 99.944 C 541.151 100.741 541.588 101.01 542.655 101.01 C 542.863 101.03 543.682 101.034 544.914 101.034 C 546.411 101.034 548.524 101.021 550.911 101.01 C 553.662 100.995 556.771 100.979 559.718 100.979" style="fill: rgb(255, 255, 255);"/>
  </g>
</svg>
